64x64/apps/drgeo.svg

<svg xmlns="http://www.w3.org/2000/svg" width="64" height="64" version="1">
 <path style="opacity:0.2" d="m 32,3.9982327 c -4.432,0 -8,3.568 -8,8.0000003 l 0,9.339844 -3.542968,-3.54297 c -2.398191,-2.398189 -6.261967,-2.398189 -8.660157,0 -2.3981894,2.39819 -2.3981894,6.261968 0,8.660158 L 23.339844,37.998233 11.796875,49.541201 c -2.3981894,2.39819 -2.3981894,6.261969 0,8.660156 2.39819,2.39819 6.261967,2.39819 8.660157,0 l 7.390624,-7.390624 c 1.21215,0.738014 2.623654,1.1875 4.152344,1.1875 1.52869,0 2.940194,-0.449486 4.152344,-1.1875 l 7.390624,7.390624 c 2.39819,2.39819 6.261968,2.39819 8.660156,0 2.39819,-2.398187 2.39819,-6.261966 0,-8.660156 L 40.660156,37.998233 52.203124,26.455266 c 2.39819,-2.39819 2.39819,-6.261968 0,-8.660158 -2.398188,-2.39819 -6.261966,-2.39819 -8.660156,0 L 40,21.338077 40,11.998233 C 40,7.5662327 36.432,3.9982327 32,3.9982327 Z"/>
 <path style="fill:#478f30" d="m 32,2.9999998 c -4.432,0 -8,3.568 -8,8.0000002 l 0,9.339844 -3.542968,-3.542969 c -2.398191,-2.39819 -6.261967,-2.39819 -8.660157,0 -2.3981894,2.398189 -2.3981894,6.261967 0,8.660157 L 23.339844,37 11.796875,48.542968 c -2.3981894,2.39819 -2.3981894,6.261968 0,8.660156 2.39819,2.39819 6.261967,2.39819 8.660157,0 L 27.847656,49.8125 C 29.059806,50.550514 30.47131,51 32,51 c 1.52869,0 2.940194,-0.449486 4.152344,-1.1875 l 7.390624,7.390624 c 2.39819,2.39819 6.261968,2.39819 8.660156,0 2.39819,-2.398188 2.39819,-6.261966 0,-8.660156 L 40.660156,37 52.203124,25.457032 c 2.39819,-2.39819 2.39819,-6.261968 0,-8.660157 -2.398188,-2.39819 -6.261966,-2.39819 -8.660156,0 L 40,20.339844 40,11 C 40,6.5679998 36.432,2.9999998 32,2.9999998 Z"/>
 <path style="opacity:0.1;fill:#f4f4f7" d="M 32 3 C 27.568 3 24 6.5679998 24 11 L 24 11.998047 C 24 7.5660472 27.568 3.9980469 32 3.9980469 C 36.432 3.9980469 40 7.5660472 40 11.998047 L 40 11 C 40 6.5679998 36.432 3 32 3 z M 16.126953 14.998047 C 14.561462 14.998047 12.99597 15.59778 11.796875 16.796875 C 10.470374 18.123376 9.8805411 19.897747 10.021484 21.625 C 10.135746 20.23022 10.725685 18.866112 11.796875 17.794922 C 14.195065 15.396732 18.05884 15.396732 20.457031 17.794922 L 24 21.337891 L 24 20.339844 L 20.457031 16.796875 C 19.257936 15.59778 17.692445 14.998047 16.126953 14.998047 z M 47.873047 14.998047 C 46.307555 14.998047 44.742064 15.59778 43.542969 16.796875 L 40 20.339844 L 40 21.337891 L 43.542969 17.794922 C 45.941159 15.396732 49.804937 15.396732 52.203125 17.794922 C 53.274315 18.866112 53.864254 20.23022 53.978516 21.625 C 54.119459 19.897747 53.529626 18.123376 52.203125 16.796875 C 51.004031 15.59778 49.438539 14.998047 47.873047 14.998047 z M 22.839844 37.5 L 11.796875 48.542969 C 10.470374 49.86947 9.8805411 51.643841 10.021484 53.371094 C 10.135746 51.976313 10.725685 50.612206 11.796875 49.541016 L 23.339844 37.998047 L 22.839844 37.5 z M 41.160156 37.5 L 40.660156 37.998047 L 52.203125 49.541016 C 53.274315 50.612206 53.864254 51.976313 53.978516 53.371094 C 54.119459 51.643841 53.529626 49.86947 52.203125 48.542969 L 41.160156 37.5 z"/>
 <rect style="opacity:0.2" width="42" height="36" x="-58" y="-50" rx="21" ry="18" transform="matrix(0,-1,-1,0,0,0)"/>
 <rect style="fill:#b08e57" width="42" height="36" x="-57" y="-50" rx="21" ry="18" transform="matrix(0,-1,-1,0,0,0)"/>
</svg>

<svg xmlns="http://www.w3.org/2000/svg" width="64" height="64" version="1"><path style="opacity:.2" d="M32 3.998c-4.432 0-8 3.568-8 8v9.34l-3.543-3.543a6.111 6.111 0 0 0-8.66 0 6.111 6.111 0 0 0 0 8.66L23.34 37.998 11.797 49.541a6.111 6.111 0 0 0 0 8.66 6.111 6.111 0 0 0 8.66 0l7.39-7.39c1.213.738 2.624 1.187 4.153 1.187 1.529 0 2.94-.45 4.152-1.187l7.391 7.39a6.111 6.111 0 0 0 8.66 0 6.111 6.111 0 0 0 0-8.66L40.66 37.998l11.543-11.543a6.111 6.111 0 0 0 0-8.66 6.111 6.111 0 0 0-8.66 0L40 21.338v-9.34c0-4.432-3.568-8-8-8z"/><path style="fill:#478f30" d="M32 3c-4.432 0-8 3.568-8 8v9.34l-3.543-3.543a6.111 6.111 0 0 0-8.66 0 6.111 6.111 0 0 0 0 8.66L23.34 37 11.797 48.543a6.111 6.111 0 0 0 0 8.66 6.111 6.111 0 0 0 8.66 0l7.39-7.39C29.06 50.55 30.472 51 32 51c1.529 0 2.94-.45 4.152-1.188l7.391 7.391a6.111 6.111 0 0 0 8.66 0 6.111 6.111 0 0 0 0-8.66L40.66 37l11.543-11.543a6.111 6.111 0 0 0 0-8.66 6.111 6.111 0 0 0-8.66 0L40 20.34V11c0-4.432-3.568-8-8-8z"/><path style="opacity:.1;fill:#f4f4f7" d="M32 3c-4.432 0-8 3.568-8 8v.998c0-4.432 3.568-8 8-8s8 3.568 8 8V11c0-4.432-3.568-8-8-8zM16.127 14.998c-1.566 0-3.131.6-4.33 1.799a6.102 6.102 0 0 0-1.776 4.828 6.101 6.101 0 0 1 1.776-3.83 6.111 6.111 0 0 1 8.66 0L24 21.338v-.998l-3.543-3.543a6.105 6.105 0 0 0-4.33-1.799zm31.746 0c-1.565 0-3.13.6-4.33 1.799L40 20.34v.998l3.543-3.543a6.111 6.111 0 0 1 8.66 0 6.101 6.101 0 0 1 1.776 3.83 6.102 6.102 0 0 0-1.776-4.828 6.105 6.105 0 0 0-4.33-1.799zM22.84 37.5 11.797 48.543a6.102 6.102 0 0 0-1.776 4.828 6.101 6.101 0 0 1 1.776-3.83L23.34 37.998l-.5-.498zm18.32 0-.5.498 11.543 11.543a6.101 6.101 0 0 1 1.776 3.83 6.102 6.102 0 0 0-1.776-4.828L41.16 37.5z"/><rect style="opacity:.2" width="42" height="36" x="-58" y="-50" rx="21" ry="18" transform="matrix(0 -1 -1 0 0 0)"/><rect style="fill:#b08e57" width="42" height="36" x="-57" y="-50" rx="21" ry="18" transform="matrix(0 -1 -1 0 0 0)"/></svg>
